lib/healthicons/icons/solid/places/home_alt.svg

<svg fill="none" height="48" viewBox="0 0 48 48" width="48" xmlns="http://www.w3.org/2000/svg"><path d="m41.7083 23.794-17.6504-17.70831-17.76385 17.70591c-.39116.3899-.3922 1.0231-.00231 1.4143.38989.3911 1.02305.3922 1.41421.0023l3.29405-3.2833v19.0749c0 .5523.4477 1 1 1h7c.5523 0 1-.4477 1-1v-7.9998c0-1.1046.8954-2 2-2h4c1.1046 0 2 .8954 2 2v7.9998c0 .5523.4477 1 1 1h7c.5523 0 1-.4477 1-1v-19.0965l3.2917 3.3026c.3899.3911 1.0231.3922 1.4142.0023.3912-.3899.3922-1.0231.0024-1.4142z" fill="#333"/></svg>

<svg width="48" height="48" viewBox="0 0 48 48" fill="none" xmlns="http://www.w3.org/2000/svg">
<path d="M41.7083 23.7942L24.0579 6.08594L6.29405 23.7919C5.90289 24.1818 5.90185 24.8149 6.29174 25.2061C6.68163 25.5973 7.31479 25.5983 7.70595 25.2084L11 21.9251V41C11 41.5523 11.4477 42 12 42H19C19.5523 42 20 41.5523 20 41V33.0002C20 31.8957 20.8954 31.0002 22 31.0002H26C27.1046 31.0002 28 31.8957 28 33.0002V41C28 41.5523 28.4477 42 29 42H36C36.5523 42 37 41.5523 37 41V21.9036L40.2917 25.2061C40.6816 25.5973 41.3148 25.5983 41.7059 25.2084C42.0971 24.8185 42.0981 24.1854 41.7083 23.7942Z" fill="#333333"/>
</svg>
